Map-navigation-icons/i-list.svg

<?xml version="1.0" encoding="UTF-8"?>
<svg width="24px" height="24px" viewBox="0 0 24 24" version="1.1" xmlns="http://www.w3.org/2000/svg" xmlns:xlink="http://www.w3.org/1999/xlink">
    <title>i-list</title>
    <g id="Fleet-View-V_2" stroke="none" stroke-width="1" fill="none" fill-rule="evenodd">
        <g id="Icons-list" transform="translate(-627.000000, -539.000000)">
            <g id="i-list" transform="translate(627.000000, 539.000000)">
                <rect id="ViewBox" x="0" y="0" width="24" height="24"></rect>
                <path d="M7.2,18.3 C7.2,17.8857864 7.53578644,17.55 7.95,17.55 L21.45,17.55 C21.8642136,17.55 22.2,17.8857864 22.2,18.3 C22.2,18.7142136 21.8642136,19.05 21.45,19.05 L7.95,19.05 C7.53578644,19.05 7.2,18.7142136 7.2,18.3 Z M7.2,12.3 C7.2,11.8857864 7.53578644,11.55 7.95,11.55 L21.45,11.55 C21.8642136,11.55 22.2,11.8857864 22.2,12.3 C22.2,12.7142136 21.8642136,13.05 21.45,13.05 L7.95,13.05 C7.53578644,13.05 7.2,12.7142136 7.2,12.3 Z M7.2,6.3 C7.2,5.88578644 7.53578644,5.55 7.95,5.55 L21.45,5.55 C21.8642136,5.55 22.2,5.88578644 22.2,6.3 C22.2,6.71421356 21.8642136,7.05 21.45,7.05 L7.95,7.05 C7.53578644,7.05 7.2,6.71421356 7.2,6.3 Z M2.7,7.8 C3.52842712,7.8 4.2,7.12842712 4.2,6.3 C4.2,5.47157288 3.52842712,4.8 2.7,4.8 C1.87157288,4.8 1.2,5.47157288 1.2,6.3 C1.2,7.12842712 1.87157288,7.8 2.7,7.8 Z M2.7,13.8 C3.52842712,13.8 4.2,13.1284271 4.2,12.3 C4.2,11.4715729 3.52842712,10.8 2.7,10.8 C1.87157288,10.8 1.2,11.4715729 1.2,12.3 C1.2,13.1284271 1.87157288,13.8 2.7,13.8 Z M2.7,19.8 C3.52842712,19.8 4.2,19.1284271 4.2,18.3 C4.2,17.4715729 3.52842712,16.8 2.7,16.8 C1.87157288,16.8 1.2,17.4715729 1.2,18.3 C1.2,19.1284271 1.87157288,19.8 2.7,19.8 Z" id="Shape" fill="#000000" fill-rule="nonzero"></path>
            </g>
        </g>
    </g>
</svg>

<svg width="24" height="24" xmlns="http://www.w3.org/2000/svg">
  <g fill="none" fill-rule="evenodd">
    <path d="M0 0h24v24H0z"/>
    <path d="M7.2 18.3a.75.75 0 0 1 .75-.75h13.5a.75.75 0 1 1 0 1.5H7.95a.75.75 0 0 1-.75-.75Zm0-6a.75.75 0 0 1 .75-.75h13.5a.75.75 0 1 1 0 1.5H7.95a.75.75 0 0 1-.75-.75Zm0-6a.75.75 0 0 1 .75-.75h13.5a.75.75 0 1 1 0 1.5H7.95a.75.75 0 0 1-.75-.75ZM2.7 7.8a1.5 1.5 0 1 0 0-3 1.5 1.5 0 0 0 0 3Zm0 6a1.5 1.5 0 1 0 0-3 1.5 1.5 0 0 0 0 3Zm0 6a1.5 1.5 0 1 0 0-3 1.5 1.5 0 0 0 0 3Z" fill="#000" fill-rule="nonzero"/>
  </g>
</svg>
